packages/sources/icons/src/vitamix/return-fill.svg

<svg width="16" height="16" viewBox="0 0 16 16" xmlns="http://www.w3.org/2000/svg"><path d="M1.99658 1.33002C1.62848 1.33002 1.33008 1.62842 1.33008 1.99652V13.9935C1.33008 14.3616 1.62848 14.66 1.99658 14.66H13.9936C14.3617 14.66 14.6601 14.3616 14.6601 13.9935V1.99652C14.6601 1.62842 14.3617 1.33002 13.9936 1.33002H1.99658ZM7.79986 4.46731L6.93815 5.32902H8.66158C9.47156 5.32902 10.303 5.60045 10.9401 6.17324C11.5889 6.75662 11.9941 7.61584 11.9941 8.6957C11.9941 9.77737 11.5871 10.6245 10.9305 11.1925C10.2887 11.7476 9.45841 11.994 8.66158 11.994H5.32908V10.661H8.66158C9.19774 10.661 9.70045 10.4939 10.0584 10.1843C10.4015 9.8875 10.6611 9.41871 10.6611 8.6957C10.6611 7.97088 10.3998 7.48002 10.0488 7.16447C9.68611 6.83834 9.18459 6.66202 8.66158 6.66202H6.93815L7.79986 7.52373L6.85729 8.46631L4.38651 5.99552L6.85729 3.52473L7.79986 4.46731Z"/></svg>

<svg width="16" height="16" xmlns="http://www.w3.org/2000/svg"><path d="M1.997 1.33a.666.666 0 0 0-.667.667v11.996c0 .369.298.667.667.667h11.997a.666.666 0 0 0 .666-.667V1.997a.666.666 0 0 0-.666-.667H1.997ZM7.8 4.467l-.862.862h1.724c.81 0 1.641.271 2.278.844.649.584 1.054 1.443 1.054 2.523 0 1.081-.407 1.928-1.063 2.497-.642.555-1.473.801-2.27.801H5.33v-1.333h3.333c.536 0 1.038-.167 1.396-.477.344-.296.603-.765.603-1.488 0-.725-.261-1.216-.612-1.532-.363-.326-.864-.502-1.387-.502H6.938l.862.862-.943.942-2.47-2.47 2.47-2.471.943.942Z"/></svg>
